public/assets/images/utils/Icon.svg

<svg width="18" height="15" viewBox="0 0 18 15" fill="none" xmlns="http://www.w3.org/2000/svg">
<path d="M16.75 12.1667L11.2143 7.16667M6.45238 7.16667L0.916696 12.1667M0.5 3L7.3041 7.76287C7.85507 8.14855 8.13056 8.3414 8.43022 8.41609C8.69491 8.48207 8.97175 8.48207 9.23645 8.41609C9.5361 8.3414 9.81159 8.14855 10.3626 7.76287L17.1667 3M4.5 13.8333H13.1667C14.5668 13.8333 15.2669 13.8333 15.8016 13.5609C16.272 13.3212 16.6545 12.9387 16.8942 12.4683C17.1667 11.9335 17.1667 11.2335 17.1667 9.83333V4.5C17.1667 3.09987 17.1667 2.3998 16.8942 1.86502C16.6545 1.39462 16.272 1.01217 15.8016 0.772484C15.2669 0.5 14.5668 0.5 13.1667 0.5H4.5C3.09987 0.5 2.3998 0.5 1.86502 0.772484C1.39462 1.01217 1.01217 1.39462 0.772484 1.86502C0.5 2.3998 0.5 3.09987 0.5 4.5V9.83333C0.5 11.2335 0.5 11.9335 0.772484 12.4683C1.01217 12.9387 1.39462 13.3212 1.86502 13.5609C2.3998 13.8333 3.09987 13.8333 4.5 13.8333Z" stroke="#65636D" stroke-linecap="round" stroke-linejoin="round"/>
</svg>

<svg xmlns="http://www.w3.org/2000/svg" fill="none" viewBox="0 0 18 15"><path stroke="#65636d" stroke-linecap="round" stroke-linejoin="round" d="m16.75 12.167-5.536-5m-4.762 0-5.535 5M.5 3l6.804 4.763c.551.386.827.578 1.126.653.265.066.542.066.806 0 .3-.075.576-.267 1.127-.653L17.167 3M4.5 13.833h8.667c1.4 0 2.1 0 2.635-.272a2.5 2.5 0 0 0 1.092-1.093c.273-.534.273-1.235.273-2.635V4.5c0-1.4 0-2.1-.273-2.635A2.5 2.5 0 0 0 15.802.772C15.267.5 14.567.5 13.167.5H4.5C3.1.5 2.4.5 1.865.772A2.5 2.5 0 0 0 .772 1.865C.5 2.4.5 3.1.5 4.5v5.333c0 1.4 0 2.1.272 2.635a2.5 2.5 0 0 0 1.093 1.093c.535.272 1.235.272 2.635.272"/></svg>
